X:128
T:Gorman's
Z: id:dc-reel-118
M:C
L:1/8
K:D Major
A3B defa|a2fd efdB|A3B defe|dBAF EFD2:|!
a3f defa|a2fd efdf|a3f defe|dBAF EFD2|!
a3f defa|a2fd efdB|A3B defe|dBAF EFD2|]!

